SVG_Azure_Grouped/Management/Azure Arc Appliance.svg

<?xml version="1.0" encoding="UTF-8" standalone="no"?>
<!-- Generated by Microsoft Visio, SVG Export Azure Arc Appliance.svg Page-1 -->

<svg
   xmlns:dc="http://purl.org/dc/elements/1.1/"
   xmlns:cc="http://creativecommons.org/ns#"
   xmlns:rdf="http://www.w3.org/1999/02/22-rdf-syntax-ns#"
   xmlns:svg="http://www.w3.org/2000/svg"
   xmlns="http://www.w3.org/2000/svg"
   xmlns:xlink="http://www.w3.org/1999/xlink"
   xmlns:sodipodi="http://sodipodi.sourceforge.net/DTD/sodipodi-0.dtd"
   xmlns:inkscape="http://www.inkscape.org/namespaces/inkscape"
   width="0.62909567in"
   height="0.78741241in"
   viewBox="0 0 45.294985 56.693403"
   xml:space="preserve"
   class="st5"
   version="1.1"
   id="svg45"
   sodipodi:docname="Azure Arc Appliance.svg"
   style="font-size:12px;overflow:visible;color-interpolation-filters:sRGB;fill:none;fill-rule:evenodd;stroke-linecap:square;stroke-miterlimit:3"
   inkscape:version="0.92.5 (2060ec1f9f, 2020-04-08)"><metadata
   id="metadata49"><rdf:RDF><cc:Work
       rdf:about=""><dc:format>image/svg+xml</dc:format><dc:type
         rdf:resource="http://purl.org/dc/dcmitype/StillImage" /></cc:Work></rdf:RDF></metadata><sodipodi:namedview
   pagecolor="#ffffff"
   bordercolor="#666666"
   borderopacity="1"
   objecttolerance="10"
   gridtolerance="10"
   guidetolerance="10"
   inkscape:pageopacity="0"
   inkscape:pageshadow="2"
   inkscape:window-width="640"
   inkscape:window-height="480"
   id="namedview47"
   showgrid="false"
   inkscape:zoom="1.4237837"
   inkscape:cx="30.197588"
   inkscape:cy="37.5208"
   inkscape:window-x="0"
   inkscape:window-y="0"
   inkscape:window-maximized="0"
   inkscape:current-layer="svg45" />
	<style
   type="text/css"
   id="style2">
	<![CDATA[
		.st1 {fill:#5ea0ef;stroke:none;stroke-linecap:butt;stroke-width:33.6052}
		.st2 {fill:#50e6ff;stroke:none;stroke-linecap:butt;stroke-width:33.6052}
		.st3 {fill:#005ba1;stroke:none;stroke-linecap:butt;stroke-width:33.6052}
		.st4 {fill:url(#grad0-12);stroke:none;stroke-linecap:butt;stroke-width:33.6052}
		.st5 {fill:none;fill-rule:evenodd;font-size:12px;overflow:visible;stroke-linecap:square;stroke-miterlimit:3}
	]]>
	</style>

	<defs
   id="Patterns_And_Gradients">
		<linearGradient
   id="grad0-12"
   x1="0"
   y1="0"
   x2="1"
   y2="0"
   gradientTransform="rotate(90,0.5,0.5)">
			<stop
   offset="0"
   stop-color="#b796f9"
   stop-opacity="1"
   id="stop4" />
			<stop
   offset="1"
   stop-color="#773adc"
   stop-opacity="1"
   id="stop6" />
		</linearGradient>
	<linearGradient
   inkscape:collect="always"
   xlink:href="#grad0-12"
   id="linearGradient4559"
   gradientTransform="scale(0.46943955,2.1301997)"
   x1="0"
   y1="42.000751"
   x2="16.359977"
   y2="42.000751"
   gradientUnits="userSpaceOnUse" /><linearGradient
   inkscape:collect="always"
   xlink:href="#grad0-12"
   id="linearGradient4561"
   gradientTransform="scale(1.1656137,0.85791718)"
   x1="0"
   y1="110.45057"
   x2="34.462533"
   y2="110.45057"
   gradientUnits="userSpaceOnUse" /></defs>
	<g
   id="g43"
   transform="translate(-33.604761,-33.605298)">
		<title
   id="title10">Page-1</title>
		<g
   id="group13034-1"
   transform="translate(33.5649,-34.0157)">
			<title
   id="title12">Azure Arc Appliance.13034</title>
			<g
   id="group13035-2">
				<title
   id="title14">g10</title>
				<g
   id="shape13036-3"
   transform="translate(0.0248497)">
					<title
   id="title16">path2</title>
					<path
   d="m 25.53,108.61 v 0.72 a 5.71126,5.79634 0 1 1 -5.75,0 v -0.66 l -19.72,0.18 c 0,0 -0.06,7.91 0,8.23 0.31,1.8 2.4,3.55 6.25,4.93 a 56.9883,57.8372 -180 0 0 32.02,-0.05 c 4.17,-1.44 6.48,-3.29 6.91,-5.16 0.05,-0.23 0.07,-8.37 0.07,-8.37 z"
   class="st1"
   id="path18"
   inkscape:connector-curvature="0"
   style="fill:#5ea0ef;stroke:none;stroke-width:33.60520172;stroke-linecap:butt" />
				</g>
				<g
   id="shape13037-5"
   transform="translate(0,-7.8074)">
					<title
   id="title21">path4-7-9</title>
					<path
   d="m 16.97,122.07 a 5.66774,5.75216 0 0 1 2.84,-4.94 V 108.7 C 8.62,109.3 0,112.73 0.04,116.78 c 0.04,3.74 7.44,6.79 17.37,7.54 a 5.66463,5.74901 0 0 1 -0.44,-2.25 z m 8.58,-13.42 v 8.49 a 5.59623,5.67959 0 0 1 2.42,7.08 c 9.98,-0.93 17.38,-4.14 17.35,-7.89 -0.04,-4.04 -8.65,-7.28 -19.77,-7.68 z"
   class="st2"
   id="path23"
   inkscape:connector-curvature="0"
   style="fill:#50e6ff;stroke:none;stroke-width:33.60520172;stroke-linecap:butt" />
				</g>
				<g
   id="shape13038-7"
   transform="translate(19.8075,-2.14125)">
					<title
   id="title26">path6</title>
					<path
   d="m 5.75,109.29 v 2.19 a 5.71126,5.79634 0 1 1 -5.75,0 v -2.19 a 7.68238,7.79682 -180 1 0 5.75,0 z"
   class="st3"
   id="path28"
   inkscape:connector-curvature="0"
   style="fill:#005ba1;stroke:none;stroke-width:33.60520172;stroke-linecap:butt" />
				</g>
				<g
   id="shape13039-9"
   transform="translate(18.8437,-6.14454)">
					<title
   id="title31">path8</title>
					<path
   d="m 3.84,124.32 a 3.88737,3.83031 -90 0 0 3.83,-3.89 3.78678,3.84319 -180 0 0 -2.83,-3.69 V 97.06 a 3.78367,3.84004 -180 0 0 2.84,-3.69 3.88737,3.83031 -90 0 0 -3.84,-3.9 3.88737,3.83031 -90 0 0 -3.83,3.88 3.78678,3.84319 -180 0 0 2.83,3.71 v 19.69 a 3.78367,3.84004 -180 0 0 -2.84,3.69 3.89052,3.83342 -90 0 0 3.84,3.88 z"
   class="st4"
   id="path33"
   inkscape:connector-curvature="0"
   style="fill:url(#linearGradient4559);stroke:none;stroke-width:33.60520172;stroke-linecap:butt" />
				</g>
				<g
   id="shape13040-13"
   transform="translate(2.59603,-27.1369)">
					<title
   id="title36">path10</title>
					<path
   d="M 32.34,106.06 A 11.4847,11.6558 -180 0 0 20.62,94.76 11.7614,11.9366 -180 0 0 9.41,102.65 10.8816,11.0437 -180 0 0 0,113.41 11.0401,11.2046 -180 0 0 11.31,124.32 h 5.91 v -5 a 5.67706,5.76163 0 0 1 2.86,-10.76 5.75848,5.67395 90 0 1 2.88,10.76 v 5 h 7.88 a 9.57888,9.72157 -180 0 0 9.33,-9.26 9.15916,9.2956 -180 0 0 -7.83,-9 z"
   class="st4"
   id="path38"
   inkscape:connector-curvature="0"
   style="fill:url(#linearGradient4561);stroke:none;stroke-width:33.60520172;stroke-linecap:butt" />
				</g>
			</g>
		</g>
	</g>
</svg>

<?xml version="1.0" encoding="UTF-8" standalone="no"?>
<!DOCTYPE svg PUBLIC "-//W3C//DTD SVG 1.1//EN" "http://www.w3.org/Graphics/SVG/1.1/DTD/svg11.dtd">
<!-- Generated by Microsoft Visio, SVG Export Azure Arc Appliance.svg Page-1 -->
<svg xmlns="http://www.w3.org/2000/svg" xmlns:xlink="http://www.w3.org/1999/xlink" xmlns:ev="http://www.w3.org/2001/xml-events"
		width="1.56258in" height="1.72662in" viewBox="0 0 112.506 124.316" xml:space="preserve" color-interpolation-filters="sRGB"
		class="st5">
	<style type="text/css">
	<![CDATA[
		.st1 {fill:#5ea0ef;stroke:none;stroke-linecap:butt;stroke-width:33.6052}
		.st2 {fill:#50e6ff;stroke:none;stroke-linecap:butt;stroke-width:33.6052}
		.st3 {fill:#005ba1;stroke:none;stroke-linecap:butt;stroke-width:33.6052}
		.st4 {fill:url(#grad0-12);stroke:none;stroke-linecap:butt;stroke-width:33.6052}
		.st5 {fill:none;fill-rule:evenodd;font-size:12px;overflow:visible;stroke-linecap:square;stroke-miterlimit:3}
	]]>
	</style>

	<defs id="Patterns_And_Gradients">
		<linearGradient id="grad0-12" x1="0" y1="0" x2="1" y2="0" gradientTransform="rotate(90 0.5 0.5)">
			<stop offset="0" stop-color="#b796f9" stop-opacity="1"/>
			<stop offset="1" stop-color="#773adc" stop-opacity="1"/>
		</linearGradient>
	</defs>
	<g>
		<title>Page-1</title>
		<g id="group12741-1" transform="translate(33.5649,-34.0157)">
			<title>Azure Arc Appliance.12741</title>
			<g id="group12742-2">
				<title>g10</title>
				<g id="shape12743-3" transform="translate(0.0248497,2.98428E-13)">
					<title>path2</title>
					<path d="M25.53 108.61 L25.53 109.33 A5.71126 5.79634 0 1 1 19.78 109.33 L19.78 108.67 L0.06 108.85 C0.06 108.85
								 0 116.76 0.06 117.08 C0.37 118.88 2.46 120.63 6.31 122.01 A56.9883 57.8372 -180 0 0 38.33 121.96
								 C42.5 120.52 44.81 118.67 45.24 116.8 C45.29 116.57 45.31 108.43 45.31 108.43 L25.53 108.61 Z"
							class="st1"/>
				</g>
				<g id="shape12744-5" transform="translate(0,-7.8074)">
					<title>path4-7-9</title>
					<path d="M16.97 122.07 A5.66774 5.75216 0 0 1 19.81 117.13 L19.81 108.7 C8.62 109.3 0 112.73 0.04 116.78 C0.08
								 120.52 7.48 123.57 17.41 124.32 A5.66463 5.74901 0 0 1 16.97 122.07 ZM25.55 108.65 L25.55 117.14
								 A5.59623 5.67959 0 0 1 27.97 124.22 C37.95 123.29 45.35 120.08 45.32 116.33 C45.28 112.29 36.67
								 109.05 25.55 108.65 Z" class="st2"/>
				</g>
				<g id="shape12745-7" transform="translate(19.8075,-2.14125)">
					<title>path6</title>
					<path d="M5.75 109.29 L5.75 111.48 A5.71126 5.79634 0 1 1 -0 111.48 L0 109.29 A7.68238 7.79682 -180 1 0 5.75
								 109.29 L5.75 109.29 Z" class="st3"/>
				</g>
				<g id="shape12746-9" transform="translate(18.8437,-6.14454)">
					<title>path8</title>
					<path d="M3.84 124.32 A3.88737 3.83031 -90 0 0 7.67 120.43 A3.78678 3.84319 -180 0 0 4.84 116.74 L4.84 97.06
								 A3.78367 3.84004 -180 0 0 7.68 93.37 A3.88737 3.83031 -90 0 0 3.84 89.47 A3.88737 3.83031 -90 0
								 0 0.01 93.35 A3.78678 3.84319 -180 0 0 2.84 97.06 L2.84 116.75 A3.78367 3.84004 -180 0 0 -0 120.44
								 A3.89052 3.83342 -90 0 0 3.84 124.32 Z" class="st4"/>
				</g>
				<g id="shape12747-13" transform="translate(2.59603,-27.1369)">
					<title>path10</title>
					<path d="M32.34 106.06 A11.4847 11.6558 -180 0 0 20.62 94.76 A11.7614 11.9366 -180 0 0 9.41 102.65 A10.8816 11.0437
								 -180 0 0 -0 113.41 A11.0401 11.2046 -180 0 0 11.31 124.32 L17.22 124.32 L17.22 119.32 A5.67706 5.76163
								 0 0 1 20.08 108.56 A5.75848 5.67395 90 0 1 22.96 119.32 L22.96 124.32 L30.84 124.32 A9.57888 9.72157
								 -180 0 0 40.17 115.06 A9.15916 9.2956 -180 0 0 32.34 106.06 Z" class="st4"/>
				</g>
			</g>
		</g>
	</g>
</svg>
